assets/flags-color/Ax.svg

<svg xmlns="http://www.w3.org/2000/svg" viewBox="0 0 512 512"><path fill="#4173cd" d="M0 0h512v512H0z"/><path fill="#ffe15a" d="M512 211.862H229.517V0h-88.276v211.862H0v88.276h141.241V512h88.276V300.138H512z"/><path fill="#ff4b55" d="M512 238.345H203.034V0h-35.31v238.345H0v35.31h167.724V512h35.31V273.655H512z"/></svg>

<svg xmlns="http://www.w3.org/2000/svg" x="0" y="0" enable-background="new 0 0 512 512" version="1.1" viewBox="0 0 512 512" xml:space="preserve"><path fill="#4173CD" d="M0 0H512V512H0z"/><path fill="#FFE15A" d="M512 211.862 229.517 211.862 229.517 0 141.241 0 141.241 211.862 0 211.862 0 300.138 141.241 300.138 141.241 512 229.517 512 229.517 300.138 512 300.138z"/><path fill="#FF4B55" d="M512 238.345 203.034 238.345 203.034 0 167.724 0 167.724 238.345 0 238.345 0 273.655 167.724 273.655 167.724 512 203.034 512 203.034 273.655 512 273.655z"/></svg>
